src/icons/svgs/24/eye.svg

<svg width="24" height="24" viewBox="0 0 24 24" fill="none" xmlns="http://www.w3.org/2000/svg">
<path d="M21.8785 11.3607C19.9965 6.98214 16.2674 4 12 4C7.73264 4 4.00313 6.98571 2.12045 11.3607C2.05427 11.55 2 11.8214 2 12C2 12.1778 2.05424 12.45 2.12045 12.6082C4.00417 17.0179 7.73264 20 12 20C16.2674 20 19.9965 17.015 21.8785 12.6393C21.9444 12.45 22 12.1464 22 12C22 11.8214 21.9444 11.55 21.8785 11.3607ZM12 18.2857C8.54583 18.2857 5.36111 15.875 3.68056 12.0321C5.3684 8.12143 8.54861 5.71429 12 5.71429C15.4542 5.71429 18.6389 8.125 20.3194 11.9679C18.6007 15.8786 15.4514 18.2857 12 18.2857ZM12 7.42857C9.54514 7.42857 7.55556 9.475 7.55556 12C7.55556 14.525 9.54618 16.5714 12 16.5714C14.4528 16.5714 16.4444 14.5243 16.4444 12.0036C16.4444 9.47857 14.4549 7.42857 12 7.42857ZM12 14.8571C10.4684 14.8571 9.22222 13.5754 9.22222 12C9.22222 11.9733 9.22917 11.9485 9.22986 11.922C9.40625 11.9679 9.58681 12 9.77778 12C11.0052 12 12 10.9768 12 9.71429C12 9.51857 11.9696 9.33143 11.9242 9.15071C11.9514 9.15 11.9757 9.14286 12 9.14286C13.5316 9.14286 14.7778 10.4246 14.7778 12.0018C14.7778 13.575 13.5313 14.8571 12 14.8571Z" fill="black"/>
</svg>

<svg width="24" height="24" viewBox="0 0 24 24" xmlns="http://www.w3.org/2000/svg">
    <path d="M21.878 11.36C19.997 6.983 16.268 4 12 4c-4.267 0-7.997 2.986-9.88 7.36A2.26 2.26 0 0 0 2 12c0 .178.054.45.12.608C4.004 17.018 7.733 20 12 20s7.997-2.985 9.878-7.36A2.49 2.49 0 0 0 22 12c0-.179-.056-.45-.122-.64ZM12 18.287c-3.454 0-6.639-2.411-8.32-6.254C5.369 8.122 8.55 5.714 12 5.714c3.454 0 6.639 2.411 8.32 6.254-1.72 3.91-4.869 6.318-8.32 6.318ZM12 7.43c-2.455 0-4.444 2.046-4.444 4.571s1.99 4.571 4.444 4.571c2.453 0 4.444-2.047 4.444-4.567 0-2.525-1.99-4.575-4.444-4.575Zm0 7.428c-1.532 0-2.778-1.282-2.778-2.857 0-.027.007-.052.008-.078.176.046.357.078.548.078C11.005 12 12 10.977 12 9.714c0-.195-.03-.383-.076-.563.027-.001.052-.008.076-.008 1.532 0 2.778 1.282 2.778 2.859 0 1.573-1.247 2.855-2.778 2.855Z"/>
</svg>
